X: 30348
T: Old Pensioner, The
R: reel
M: 4/4
K: Dmajor
(3ABc|:Sd2 (3cBA BEEG|(3FED (AD) FABc|dB (3cBA BEEA|1 Bged cABc:|2 Bgec d2||
(3ABc|d2 (fd) adfd|ddfd cdec|d2 (fd) adfd|dBAF EFAc|
d2 (fd) adfd|(3ddd (fd) cdec|defd cdec|cBAF EF (3ABcS||

